packages/kaspersky-hexa-ui-icons/src/iconsSVGs/32/GearBroken.svg

<svg width="32" height="32" viewBox="0 0 32 32" fill="none" xmlns="http://www.w3.org/2000/svg">
<path fill-rule="evenodd" clip-rule="evenodd" d="M12.6996 3.06416C12.7675 2.56898 13.1905 2.19995 13.6903 2.19995H18.3079C18.8075 2.19995 19.2305 2.56873 19.2985 3.06371L19.7512 6.35492C20.2841 6.56236 20.7954 6.81261 21.281 7.10137C21.7554 7.38346 21.9115 7.99651 21.6299 8.47114L19.0467 12.8249C18.9112 13.0531 18.6906 13.2182 18.4334 13.2836C18.1762 13.3491 17.9036 13.3097 17.6755 13.174C17.1856 12.8827 16.6137 12.7151 15.9995 12.7151C14.1855 12.7151 12.7149 14.1857 12.7149 15.9997C12.7149 17.8138 14.1855 19.2843 15.9995 19.2843C17.8135 19.2843 19.2841 17.8139 19.2842 15.9999C19.2842 15.4476 19.7319 14.9999 20.2842 14.9999H25.3456C25.6109 14.9999 25.8652 15.1053 26.0528 15.2928C26.2403 15.4804 26.3457 15.7348 26.3456 16C26.3456 16.5343 26.305 17.0597 26.2266 17.5731L28.8517 19.6115C29.2463 19.918 29.3542 20.4687 29.1044 20.9014L26.7956 24.9002C26.5457 25.3331 26.0146 25.515 25.5519 25.3261L22.4736 24.0702C21.6588 24.7246 20.7424 25.2584 19.7513 25.6442L19.2985 28.9362C19.2305 29.4312 18.8075 29.8 18.3079 29.8H13.6903C13.1905 29.8 12.7675 29.4309 12.6996 28.9357L12.2485 25.6444C11.2572 25.2587 10.3405 24.7248 9.52559 24.0703L6.44809 25.3259C5.98531 25.5147 5.4542 25.3329 5.20429 24.9L2.89554 20.9011C2.64572 20.4684 2.75361 19.9178 3.14824 19.6113L5.77252 17.5735C5.69406 17.0598 5.65343 16.5341 5.65343 15.9996C5.65343 15.4656 5.69396 14.9406 5.77225 14.4275L3.14638 12.3903C2.75147 12.0839 2.64342 11.533 2.89332 11.1002L5.20208 7.10131C5.45189 6.66861 5.98275 6.4867 6.44545 6.67524L9.52437 7.92981C10.3396 7.27491 11.2567 6.74065 12.2486 6.35466L12.6996 3.06416ZM14.5626 4.19995L14.1474 7.22949C14.095 7.61143 13.8278 7.92927 13.4605 8.04641C12.3065 8.41447 11.2605 9.02741 10.3839 9.82518C10.0989 10.0845 9.6903 10.1571 9.33347 10.0117L6.49818 8.85639L5.06151 11.3448L7.4786 13.22C7.78281 13.456 7.92451 13.8457 7.84293 14.2219C7.71893 14.7939 7.65343 15.3885 7.65343 15.9996C7.65343 16.6111 7.71903 17.2061 7.8432 17.7785C7.92482 18.1546 7.78328 18.5442 7.47927 18.7803L5.06353 20.6562L6.5002 23.1446L9.33394 21.9884C9.69081 21.8428 10.0996 21.9153 10.3847 22.1747C11.2611 22.9721 12.3068 23.5847 13.4604 23.9527C13.8277 24.0699 14.0949 24.3877 14.1473 24.7696L14.5626 27.8H17.436L17.8528 24.7689C17.9053 24.3872 18.1724 24.0696 18.5395 23.9524C19.6928 23.5844 20.7383 22.9718 21.6145 22.1746C21.8996 21.9152 22.3084 21.8428 22.6652 21.9884L25.4997 23.1448L26.9364 20.6564L24.5199 18.7799C24.2159 18.5439 24.0744 18.1543 24.1559 17.7781C24.2113 17.5231 24.255 17.2635 24.2864 16.9999H21.1896C20.7221 19.4403 18.5762 21.2843 15.9995 21.2843C13.0809 21.2843 10.7149 18.9183 10.7149 15.9997C10.7149 13.0811 13.0809 10.7151 15.9995 10.7151C16.6265 10.7151 17.2292 10.8247 17.7885 11.0259L19.3694 8.36146C19.0999 8.24236 18.8229 8.13714 18.5394 8.04668C18.1723 7.92956 17.9052 7.61196 17.8527 7.23024L17.436 4.19995H14.5626Z" fill="black"/>
</svg>

<svg xmlns="http://www.w3.org/2000/svg" width="32" height="32" fill="none" viewBox="0 0 32 32"><path fill="#000" fill-rule="evenodd" d="M12.6996 3.0642a1 1 0 0 1 .9907-.8642h4.6176a1 1 0 0 1 .9906.8638l.4527 3.2912a10.3 10.3 0 0 1 1.5298.7464c.4744.2821.6305.8952.3489 1.3698l-2.5832 4.3537a1 1 0 0 1-1.3712.3492 3.265 3.265 0 0 0-1.676-.459c-1.814 0-3.2846 1.4706-3.2846 3.2847s1.4706 3.2846 3.2846 3.2846S19.2841 17.8139 19.2842 16c0-.5523.4477-1 1-1h5.0614a1 1 0 0 1 1 1c0 .5343-.0406 1.0597-.119 1.5731l2.6251 2.0385a1 1 0 0 1 .2527 1.2898l-2.3088 3.9989a1 1 0 0 1-1.2437.4259l-3.0783-1.2559a10.34 10.34 0 0 1-2.7223 1.5739l-.4528 3.2921a1 1 0 0 1-.9906.8637h-4.6176a1 1 0 0 1-.9907-.8642l-.4511-3.2913a10.34 10.34 0 0 1-2.723-1.5741L6.4482 25.326a1 1 0 0 1-1.2438-.4259l-2.3088-3.9989a1 1 0 0 1 .2527-1.2898l2.6243-2.0379a10.4 10.4 0 0 1-.119-1.5739c0-.5339.0405-1.059.1187-1.5721l-2.6258-2.0371a1 1 0 0 1-.253-1.2901l2.3087-3.999a1 1 0 0 1 1.2434-.426l3.0789 1.2546a10.34 10.34 0 0 1 2.7242-1.5752zM14.5626 4.2l-.4152 3.0295a1 1 0 0 1-.6869.817c-1.154.368-2.2.981-3.0766 1.7787a1 1 0 0 1-1.0504.1865L6.4982 8.8565l-1.4367 2.4883L7.4786 13.22a1 1 0 0 1 .3643 1.002 8.38 8.38 0 0 0-.1895 1.7776 8.38 8.38 0 0 0 .1898 1.7789 1 1 0 0 1-.364 1.0019l-2.4157 1.8759 1.4367 2.4884 2.8337-1.1562a1 1 0 0 1 1.0508.1863 8.34 8.34 0 0 0 3.0757 1.778 1 1 0 0 1 .6869.8169l.4153 3.0303h2.8734l.4168-3.0311a1 1 0 0 1 .6867-.8164 8.34 8.34 0 0 0 3.075-1.7778 1 1 0 0 1 1.0507-.1863l2.8345 1.1565 1.4367-2.4884-2.4165-1.8765a1 1 0 0 1-.364-1.0018A8.3 8.3 0 0 0 24.2864 17h-3.0968c-.4675 2.4404-2.6134 4.2844-5.1901 4.2844-2.9186 0-5.2846-2.366-5.2846-5.2846s2.366-5.2847 5.2846-5.2847c.627 0 1.2297.1096 1.789.3108l1.5809-2.6644a8.3 8.3 0 0 0-.83-.3148 1 1 0 0 1-.6867-.8164L17.436 4.2z"/></svg>
